icons/Design/ball-pen-fill.svg

<svg viewBox="0 0 24 24" xmlns="http://www.w3.org/2000/svg"><path d="M17.8492 11.8051L17.1421 11.098L7.24264 20.9975H3V16.7549L14.3137 5.44114L19.9706 11.098C20.3611 11.4885 20.3611 12.1217 19.9706 12.5122L12.8995 19.5833L11.4853 18.1691L17.8492 11.8051ZM18.5563 2.61272L21.3848 5.44114C21.7753 5.83167 21.7753 6.46483 21.3848 6.85536L19.9706 8.26957L15.7279 4.02693L17.1421 2.61272C17.5327 2.22219 18.1658 2.22219 18.5563 2.61272Z"/></svg>

<svg xmlns="http://www.w3.org/2000/svg" viewBox="0 0 24 24">
    <g>
        <path fill="none" d="M0 0h24v24H0z"/>
        <path d="M17.849 11.808l-.707-.707-9.9 9.9H3v-4.243L14.313 5.444l5.657 5.657a1 1 0 0 1 0 1.414l-7.07 7.071-1.415-1.414 6.364-6.364zm.707-9.192l2.829 2.828a1 1 0 0 1 0 1.414L19.97 8.273 15.728 4.03l1.414-1.414a1 1 0 0 1 1.414 0z"/>
    </g>
</svg>
